assets/img/icons8-close.svg

<svg fill="#03a054" xmlns="http://www.w3.org/2000/svg"  viewBox="0 0 24 24" width="24px" height="24px"><path d="M 4.7070312 3.2929688 L 3.2929688 4.7070312 L 10.585938 12 L 3.2929688 19.292969 L 4.7070312 20.707031 L 12 13.414062 L 19.292969 20.707031 L 20.707031 19.292969 L 13.414062 12 L 20.707031 4.7070312 L 19.292969 3.2929688 L 12 10.585938 L 4.7070312 3.2929688 z"/></svg>

<svg xmlns="http://www.w3.org/2000/svg" xmlns:xlink="http://www.w3.org/1999/xlink" viewBox="0,0,256,256" width="24px" height="24px"><g fill="#000000" fill-rule="nonzero" stroke="none" stroke-width="1" stroke-linecap="butt" stroke-linejoin="miter" stroke-miterlimit="10" stroke-dasharray="" stroke-dashoffset="0" font-family="none" font-weight="none" font-size="none" text-anchor="none" style="mix-blend-mode: normal"><g transform="scale(10.66667,10.66667)"><path d="M4.70703,3.29297l-1.41406,1.41406l7.29297,7.29297l-7.29297,7.29297l1.41406,1.41406l7.29297,-7.29297l7.29297,7.29297l1.41406,-1.41406l-7.29297,-7.29297l7.29297,-7.29297l-1.41406,-1.41406l-7.29297,7.29297z"></path></g></g></svg>
